X: 2
T: Nancy's Choice
R: jig
M: 12/8
L: 1/8
Z: 2010,2014 John Chambers <jc:trillian.mit.edu>
B: Longman ed. "Twenty Four Country Dances", p.25 London 1770
K: G
|: G2B A2c B2d c2e | dcB A2G FGA D3 | G2B A2c B2^c d2g | fed ed^c dAF D3 :|
|: A2A ABc B2A B2G | edc BAG F2G AFD | A2A ABc B2A B2G | edc BAG B2A G3 :|
% - - - - - - - - - - - - - - - - - - - - - - - - -
%%begintext align
%% First Cu: lead down Between the 2d and up again .| Right Hands four a Cross, half
%% round .|. the same back with the Left :|. Cross over One Cu: and Right and Left
%% at the Top :|:
%%endtext
% - - - - - - - - - - - - - - - - - - - - - - - - -
